X: 39122
T: Sweet Dublin Bay
R: waltz
M: 3/4
K: Eminor
E2|:"Em"E4F2|F2F2E2|"Bm"d4d2|e4e2|"D"B2A2F2|E4F2|"Bm"D6-|D4D2|
"Em"E4F2|G2F2E2|"Bm"d4d2|e4e2|"D"B2A2F2|E4D2|"Em"E6-|E2d2d2|
"G"d4G2|A2B2d2|"C"e4f2|e2d2B2|"D"A4F2|E2D2B,2|"Bm"D6-|D2G2F2|
"C"E4F2|"D"G2F2E2|"Bm"d4e2|"C"e2d2B2|"D"B2A2F2|"Bm"E4D2|1 "A"E6-|E4E2:|2 "Em"E6-|E6||

